X:349
T: "Der Wecker"
N: Z1029
O: Europa, Mitteleuropa, Deutschland, Niederrhein
R: Romanze, Ballade, Brunhilde - Sage, Dornroeschen
M: 2/4
L: 1/8
K: G
 | _B2AG | F3F | GA_B2
B2AG | F3F | GA_Bz
B2AB | G2AF | G2z2
_B2c2 | d2z2 | _B2c2 | d2z2
d2c_B | A2G2 | A2GF | G2z2

